public/images/swap.svg

<svg height="163" viewBox="0 0 163 163" width="163" xmlns="http://www.w3.org/2000/svg"><path d="m0 0h163v163h-163z" fill="none"/><path d="m137.833 69.917a67.917 67.917 0 1 0 -67.917 67.917 67.941 67.941 0 0 0 67.917-67.917zm-47.541-37.354 23.771 23.771-23.771 23.766v-16.975h-27.167v-13.583h27.167zm-40.75 74.708-23.771-23.771 23.771-23.771v16.979h27.166v13.584h-27.166z" fill="#fff" transform="translate(11.583 11.583)"/></svg>

<svg id="swap_horizontal_circle-24px" xmlns="http://www.w3.org/2000/svg" width="163" height="163" viewBox="0 0 163 163">
  <path id="Path_6305" data-name="Path 6305" d="M0,0H163V163H0Z" fill="none"/>
  <path id="Path_6306" data-name="Path 6306" d="M137.833,69.917a67.917,67.917,0,1,0-67.917,67.917A67.941,67.941,0,0,0,137.833,69.917ZM90.292,32.563l23.771,23.771L90.292,80.1V63.125H63.125V49.542H90.292Zm-40.75,74.708L25.771,83.5,49.542,59.729V76.708H76.708V90.292H49.542Z" transform="translate(11.583 11.583)" fill="#fff"/>
</svg>
